azure-patterns/svg-arrow-in-bullseye.svg

<svg xmlns="http://www.w3.org/2000/svg" viewBox="0 0 34 34">
                                
                            
    <g stroke="none" stroke-width="1" fill="none" fill-rule="evenodd">
        <path d="M31.2267,17.3369 C31.2267,25.8249 24.3457,32.7059 15.8577,32.7059 C7.3707,32.7059 0.4897,25.8249 0.4897,17.3369 C0.4897,8.8499 7.3707,1.9689 15.8577,1.9689 C24.3457,1.9689 31.2267,8.8499 31.2267,17.3369" fill="#FFFFFF"></path>
        <path d="M15.8469,33.3398 C11.6159,33.3398 7.6549,31.6978 4.6429,28.6838 C1.5159,25.5528 -0.1301,21.3888 0.0079,16.9568 C0.2739,8.5138 7.3669,1.6228 15.8199,1.5958 C18.5969,1.5958 21.2859,2.2998 23.6489,3.6308 C23.8899,3.7668 23.9749,4.0708 23.8389,4.3118 C23.7019,4.5528 23.3949,4.6358 23.1589,4.5018 C20.9459,3.2548 18.4249,2.5958 15.8709,2.5958 C7.9029,2.6208 1.2559,9.0778 1.0079,16.9878 C0.8779,21.1408 2.4199,25.0428 5.3499,27.9768 C8.2859,30.9158 12.1709,32.4448 16.3319,32.3318 C20.1579,32.2168 23.7559,30.6328 26.4669,27.8708 C29.1769,25.1108 30.6969,21.4828 30.7429,17.6548 C30.7749,15.1208 30.1549,12.6088 28.9509,10.3898 C28.8189,10.1478 28.9089,9.8438 29.1519,9.7118 C29.3919,9.5818 29.6969,9.6698 29.8289,9.9128 C31.1149,12.2808 31.7769,14.9628 31.7429,17.6668 C31.6929,21.7538 30.0729,25.6258 27.1799,28.5718 C24.2879,31.5188 20.4469,33.2088 16.3629,33.3318 C16.1909,33.3368 16.0189,33.3398 15.8469,33.3398" fill="#0078D4"></path>
        <path d="M15.8908,26.5205 C13.5578,26.5205 11.3028,25.6255 9.6138,24.0095 C7.7518,22.2285 6.7348,19.7275 6.8238,17.1485 C6.9808,12.5695 10.6808,8.7415 15.2468,8.4335 C16.8488,8.3235 18.4708,8.6435 19.9048,9.3425 C20.1528,9.4635 20.2558,9.7625 20.1348,10.0105 C20.0158,10.2605 19.7148,10.3615 19.4668,10.2415 C18.1888,9.6185 16.7378,9.3355 15.3128,9.4315 C11.2528,9.7045 7.9628,13.1095 7.8238,17.1835 C7.7448,19.4775 8.6488,21.7035 10.3048,23.2875 C11.9598,24.8705 14.2098,25.6785 16.5268,25.4965 C20.4048,25.1905 23.5728,22.0375 23.8978,18.1605 C24.0158,16.7465 23.7638,15.3275 23.1688,14.0565 C23.0518,13.8065 23.1608,13.5085 23.4108,13.3915 C23.6588,13.2755 23.9588,13.3815 24.0758,13.6325 C24.7438,15.0605 25.0268,16.6555 24.8938,18.2445 C24.5298,22.6035 20.9648,26.1495 16.6048,26.4925 C16.3668,26.5115 16.1278,26.5205 15.8908,26.5205" fill="#0078D4"></path>
        <path d="M23.673,6.4228 L23.68,8.4998 L15.634,16.5468 C15.21,16.3128 17.328,17.9778 17.144,17.5918 L24.978,9.7568 L27.029,9.7808 C27.316,9.7838 27.592,9.6718 27.794,9.4688 L33.419,3.8438 C33.506,3.7568 33.445,3.6078 33.322,3.6068 L30.157,3.5698 C29.992,3.5688 29.86,3.4348 29.859,3.2698 L29.849,0.1388 C29.848,0.0158 29.698,-0.0472 29.61,0.0408 L23.985,5.6668 C23.784,5.8668 23.672,6.1398 23.673,6.4228" fill="#0078D4"></path>
        <path d="M17.8566,17.455 C17.8566,18.553 16.9666,19.442 15.8696,19.442 C14.7716,19.442 13.8816,18.553 13.8816,17.455 C13.8816,16.358 14.7716,15.469 15.8696,15.469 C16.9666,15.469 17.8566,16.358 17.8566,17.455" fill="#0078D4"></path>
    </g>
</svg>

<svg xmlns="http://www.w3.org/2000/svg" viewBox="0 0 34 34"><g fill="none" fill-rule="evenodd"><path d="M31.227 17.337c0 8.488-6.881 15.369-15.37 15.369C7.372 32.706.49 25.825.49 17.336.49 8.85 7.37 1.97 15.858 1.97s15.369 6.88 15.369 15.368" fill="#FFF"/><path d="M15.847 33.34c-4.231 0-8.192-1.642-11.204-4.656C1.516 25.553-.13 21.389.008 16.957.274 8.514 7.367 1.623 15.82 1.596c2.777 0 5.466.704 7.829 2.035a.5.5 0 1 1-.49.87 14.875 14.875 0 0 0-7.288-1.905C7.903 2.62 1.256 9.078 1.008 16.988.878 21.14 2.42 25.043 5.35 27.977c2.936 2.939 6.82 4.468 10.982 4.355 3.826-.115 7.424-1.7 10.135-4.461 2.71-2.76 4.23-6.388 4.276-10.216a14.872 14.872 0 0 0-1.792-7.265.5.5 0 0 1 .878-.477 15.866 15.866 0 0 1 1.914 7.754c-.05 4.087-1.67 7.959-4.563 10.905-2.892 2.947-6.733 4.637-10.817 4.76-.172.005-.344.008-.516.008" fill="#0078D4"/><path d="M15.89 26.52a9.084 9.084 0 0 1-6.276-2.51 9.07 9.07 0 0 1-2.79-6.862c.157-4.579 3.857-8.406 8.423-8.714a9.242 9.242 0 0 1 4.658.909.5.5 0 0 1-.438.899 8.274 8.274 0 0 0-4.154-.81c-4.06.272-7.35 3.678-7.49 7.751a8.071 8.071 0 0 0 2.482 6.105 8.063 8.063 0 0 0 6.222 2.209c3.878-.306 7.046-3.46 7.37-7.337a8.102 8.102 0 0 0-.728-4.104.5.5 0 0 1 .907-.423 9.106 9.106 0 0 1 .818 4.611c-.364 4.36-3.93 7.905-8.29 8.248a8.986 8.986 0 0 1-.713.028" fill="#0078D4"/><path d="M23.673 6.423L23.68 8.5l-8.046 8.047c-.424-.234 1.694 1.43 1.51 1.045l7.834-7.835 2.051.024c.287.003.563-.11.765-.312l5.625-5.625a.139.139 0 0 0-.097-.237l-3.165-.037a.3.3 0 0 1-.298-.3l-.01-3.131A.14.14 0 0 0 29.61.04l-5.625 5.626c-.201.2-.313.473-.312.756" fill="#0078D4"/><path d="M17.857 17.455a1.987 1.987 0 1 1-3.974 0 1.987 1.987 0 0 1 3.974 0" fill="#0078D4"/></g></svg>
